packages/ffe-icons/icons/open/400/sm/nest_secure_alarm.svg

<svg xmlns="http://www.w3.org/2000/svg" height="20" viewBox="0 -960 960 960" width="20"><path d="M479.789-444Q495-444 505.5-454.289q10.5-10.29 10.5-25.5Q516-495 505.711-505.5q-10.29-10.5-25.5-10.5Q465-516 454.5-505.711q-10.5 10.29-10.5 25.5Q444-465 454.289-454.5q10.29 10.5 25.5 10.5Zm108 0Q603-444 613.5-454.289q10.5-10.29 10.5-25.5Q624-495 613.711-505.5q-10.29-10.5-25.5-10.5Q573-516 562.5-505.711q-10.5 10.29-10.5 25.5Q552-465 562.289-454.5q10.29 10.5 25.5 10.5Zm-216 0Q387-444 397.5-454.289q10.5-10.29 10.5-25.5Q408-495 397.711-505.5q-10.29-10.5-25.5-10.5Q357-516 346.5-505.711q-10.5 10.29-10.5 25.5Q336-465 346.289-454.5q10.29 10.5 25.5 10.5Zm108 108Q495-336 505.5-346.289q10.5-10.29 10.5-25.5Q516-387 505.711-397.5q-10.29-10.5-25.5-10.5Q465-408 454.5-397.711q-10.5 10.29-10.5 25.5Q444-357 454.289-346.5q10.29 10.5 25.5 10.5Zm108 0Q603-336 613.5-346.289q10.5-10.29 10.5-25.5Q624-387 613.711-397.5q-10.29-10.5-25.5-10.5Q573-408 562.5-397.711q-10.5 10.29-10.5 25.5Q552-357 562.289-346.5q10.29 10.5 25.5 10.5Zm-216 0Q387-336 397.5-346.289q10.5-10.29 10.5-25.5Q408-387 397.711-397.5q-10.29-10.5-25.5-10.5Q357-408 346.5-397.711q-10.5 10.29-10.5 25.5Q336-357 346.289-346.5q10.29 10.5 25.5 10.5Zm108-216Q495-552 505.5-562.289q10.5-10.29 10.5-25.5Q516-603 505.711-613.5q-10.29-10.5-25.5-10.5Q465-624 454.5-613.711q-10.5 10.29-10.5 25.5Q444-573 454.289-562.5q10.29 10.5 25.5 10.5Zm108 0Q603-552 613.5-562.289q10.5-10.29 10.5-25.5Q624-603 613.711-613.5q-10.29-10.5-25.5-10.5Q573-624 562.5-613.711q-10.5 10.29-10.5 25.5Q552-573 562.289-562.5q10.29 10.5 25.5 10.5Zm-216 0Q387-552 397.5-562.289q10.5-10.29 10.5-25.5Q408-603 397.711-613.5q-10.29-10.5-25.5-10.5Q357-624 346.5-613.711q-10.5 10.29-10.5 25.5Q336-573 346.289-562.5q10.29 10.5 25.5 10.5ZM480.276-96Q401-96 331-126q-70-30-122.5-82.5T126-330.958q-30-69.959-30-149.5Q96-560 126-629.5t82.5-122Q261-804 330.958-834q69.959-30 149.5-30Q560-864 629.5-834t122 82.5Q804-699 834-629.276q30 69.725 30 149Q864-401 834-331q-30 70-82.5 122.5T629.276-126q-69.725 30-149 30Zm-.046-72Q610-168 701-259.23q91-91.229 91-221Q792-610 700.77-701q-91.229-91-221-91Q350-792 259-700.77q-91 91.229-91 221Q168-350 259.23-259q91.229 91 221 91ZM480-480Z"/></svg>

<svg xmlns="http://www.w3.org/2000/svg" height="20" viewBox="0 -960 960 960" width="20"><path d="M479.79-444q15.21 0 25.71-10.29t10.5-25.5q0-15.21-10.29-25.71t-25.5-10.5q-15.21 0-25.71 10.29t-10.5 25.5q0 15.21 10.29 25.71t25.5 10.5Zm108 0q15.21 0 25.71-10.29t10.5-25.5q0-15.21-10.29-25.71t-25.5-10.5q-15.21 0-25.71 10.29t-10.5 25.5q0 15.21 10.29 25.71t25.5 10.5Zm-216 0q15.21 0 25.71-10.29t10.5-25.5q0-15.21-10.29-25.71t-25.5-10.5q-15.21 0-25.71 10.29t-10.5 25.5q0 15.21 10.29 25.71t25.5 10.5Zm108 108q15.21 0 25.71-10.29t10.5-25.5q0-15.21-10.29-25.71t-25.5-10.5q-15.21 0-25.71 10.29t-10.5 25.5q0 15.21 10.29 25.71t25.5 10.5Zm108 0q15.21 0 25.71-10.29t10.5-25.5q0-15.21-10.29-25.71t-25.5-10.5q-15.21 0-25.71 10.29t-10.5 25.5q0 15.21 10.29 25.71t25.5 10.5Zm-216 0q15.21 0 25.71-10.29t10.5-25.5q0-15.21-10.29-25.71t-25.5-10.5q-15.21 0-25.71 10.29t-10.5 25.5q0 15.21 10.29 25.71t25.5 10.5Zm108-216q15.21 0 25.71-10.29t10.5-25.5q0-15.21-10.29-25.71t-25.5-10.5q-15.21 0-25.71 10.29t-10.5 25.5q0 15.21 10.29 25.71t25.5 10.5Zm108 0q15.21 0 25.71-10.29t10.5-25.5q0-15.21-10.29-25.71t-25.5-10.5q-15.21 0-25.71 10.29t-10.5 25.5q0 15.21 10.29 25.71t25.5 10.5Zm-216 0q15.21 0 25.71-10.29t10.5-25.5q0-15.21-10.29-25.71t-25.5-10.5q-15.21 0-25.71 10.29t-10.5 25.5q0 15.21 10.29 25.71t25.5 10.5ZM480.28-96Q401-96 331-126t-122.5-82.5Q156-261 126-330.96t-30-149.5Q96-560 126-629.5q30-69.5 82.5-122T330.96-834q69.96-30 149.5-30t149.04 30q69.5 30 122 82.5T834-629.28q30 69.73 30 149Q864-401 834-331t-82.5 122.5Q699-156 629.28-126q-69.73 30-149 30Zm-.05-72Q610-168 701-259.23t91-221Q792-610 700.77-701t-221-91Q350-792 259-700.77t-91 221Q168-350 259.23-259t221 91ZM480-480Z"/></svg>
